X:1
T:III. Clair de Lune
T:Claude-Achille Debussy
C:Claude-Achille Debussy
%%score { ( 1 4 ) | ( 2 3 5 6 ) }
L:1/8
Q:1/4=80
M:9/8
K:Db
V:1 treble nm="Piano" snm="Pno."
V:4 treble 
V:2 treble 
V:3 treble 
V:5 treble 
V:6 treble 
V:1
!pp!"^Andante très espressif" z z x"_con sordina" [fa]3 [df]3- | ([df][ce][df] [ce]6-) | %2
 ([ce][Bd][ce] (2:3:2df- (2:3:2fd- | [Bd][Ac][Bd] [Ac-]6) | (cBc BeB ABA- | AGA G3 F3-) | %6
 (FFG FBF EFE | EDE D3 C3 | x3 [fa]3 [df]3-) | ([df]ef e6-) | (e[Dd][Ee] [Ada]3 [Fdf-]3) | %11
 (fef e3 d3-) | (d!<(![Dd][Ee]!<)! (2:3:2[Bb][Aa]- (2:3:2[Aa][Ff-] | %13
 fef (2:3:2e!>(!d- (2:3:2dB)!>)! | %14
!pp![Q:1/4=80]"^Tempo rubato" (2:3:2z (!tenuto![fbf']- [fbf']!tenuto![ebe']!tenuto![ebe'] !tenuto![ebe']!tenuto![dbd']!tenuto![dbd'] | %15
 !tenuto![dbd']!tenuto![cgbc']!tenuto![cgbc'] (2:3:2!tenuto![cgbc']!tenuto![dbd'] !tenuto![Bgb]3) | %16
 (2:3:2z (!tenuto![fbf']- [fbf'][gbg'][fbf'] [ebe'][fbf'][ebe'] | %17
 [dbd'][ebe'][dbd'] (2:3:2[cbc']{/e'}[dbd'] [Bgb]2-) | %18
 ([Bgb]"^peu"[Gg]"^6""^à"[Aea][cc']"^peu"[Bgb][Gg]) | %19
"^cresc." z (!tenuto![Gceg]"^et"!tenuto![Gceg] !tenuto![Gceg]"^animé"!tenuto![Gceg]!tenuto![_Ace_a] !tenuto![Gceg]3) | %20
 z ([Gg][Aa][dd'][Bb][Gg]) | %21
 z (!tenuto![GBeg]!tenuto![GBeg] !tenuto![GBeg]!tenuto![GBeg]!tenuto![Acfa] !tenuto![GBeg]3) | %22
 z ([Gg][Aa][ee'][dd'][Bb]) | z ([Bgb][Bgb] [Bgb][Bgb][cac'] [Bgb][dbd'][ebe']) | %24
"_dim."!8va(! !arpeggio!!tenuto![ad'a']6"_molto" !arpeggio!!tenuto![ad'a']3 | %25
 !arpeggio!!tenuto![ad'a']6!8va)! !arpeggio![Ada]3 |[Q:1/4=80]"^Un poco mosso"!pp! ([FA]6 _c2 d) | %27
 ([=FA]6 [A_c]2 A) |!<(! ([Fd]2 [Ae] [df]3 [Fd]2 [df])!<)! | ([e=g][df][Bd] [Bd]3) z2 z | %30
!p! (B6!<(! c2!<)! f) |!p! (B6!<(! c2!<)! f) | (g3- gf=de | b6 a3) |"^cresc." ([fa]6 [_a_c']2 d') | %35
 ([=fa]6 [^g=b]2 g) ||[K:E][Q:1/4=80]"^En animant" (c'2 g) (e'2 c') (g'2 e') | (g'3 f'6) | %38
 f'6 a'2 c'' | f6 a2 c' |!f! ([c'e'][bd'][ac'] (2:3:2[gb][fa]- [fa][eg][df]) | %41
"_dim." ([ce][Bd][Ac] [GB][FA][EG]- [EG][DF][CE]) || %42
[K:Db][Q:1/4=80]"^Calmato"!pp! ([DE]6 [EG]2 [EGB]) | ([DE]6 [EG]2 [EG-B-]) | %44
 ([DGB][Acf][GBe] [GB]3 [GA]3) | ([DGB][Acf][GBe] [GB]3 [GA]3) | (e6 g2 b) | (e6 g2 b) | %48
 (e'6- e'3- | e'3 d'3 e'3) |!ppp![Q:1/4=80]"^a Tempo 1" z2 z!8va(! ([f'a']3 f'3- | %51
 f'[c'e'][d'f'] [c'e']6-) | ([c'e'][bd'][c'e'] (2:3:2[bd'][d'f']- (2:3:2[d'f'][bd']- | %53
 [bd'][ac'][bd'] [ac']6)!8va)! | z ([gb][ac'] be'b aba-) | ([fa][eg][fa] [eg]3 [=Af-]3) | %56
 (f[df][eg] fbf efe- | e[Bd][ce] [Bd]3 [Ac]3) |!pp! z2 z (([fa]3 [df]3-) | [df]ef e6-) | %60
 e([Dd][Ee] [Afa]3 [Fdf-]3 | fef e3 d3) | z (DE [DFB]3 [A,DF]3) | z (GA d3 B3) | z (Bc f3 [CGA]3) | %65
 x9!pp! | z2 z (_c3 d3) | x9 | x2 x (_c'3 d'3) | (_c'3 d'3 _f'3) | [=f'a']6- [f'a']3 | %71
 !arpeggio![ad'f'a']6 z2 z |] %72
V:2
 z [FA]2- [FA]6 | [G=A]6- [GA]3 | [FA]6- [FA]3 | [EG]6- [EG]3 | E6 E3 | D6 C3 |[K:bass] B,6- B,3 | %7
 A,6 G,3 | [D,,A,,][I:staff -1][F,A,][I:staff +1][K:treble][FA]- [FA]6 | %9
[K:bass] z [D,G,B,D]2- [D,G,B,D]6 | z ([F,A,]2 [DF]3 [A,D]3) | z [D,G,B,D]2- [D,G,B,D]6 | %12
 z [F,_C]2 [_CDF]3- [CDF] z z | z E2- (2:3:2ED- D3 | %14
 (2:3:2z[K:treble] (!tenuto![FGB]- [FGB]!tenuto![EGB]!tenuto![EGB] !tenuto![EGB]!tenuto![DGB]!tenuto![DGB] | %15
 !tenuto![DGB]!tenuto![CGB]!tenuto![CGB] (2:3:2!tenuto![CGB]!tenuto![DGB] !tenuto![B,DG]3) | %16
[K:bass]"^m.g." (2:3:2z[K:treble] [FGB]- [FGB][GBe][FGB] [EGB][FGB][EGB] | %17
 [DGB][EGB][DGB] (2:3:2[CGB][DGB] [B,EG]2 |[K:bass] x2 [CE]2 [EG]2 | %19
 z ([G,CE][G,CE] [G,CE][G,CE][_A,CE] [G,CE]3) | z [B,D]3 [DG]2 | %21
 z (!tenuto![G,B,E]!tenuto![G,B,E] !tenuto![G,B,E]!tenuto![G,B,E]!tenuto![A,CF] !tenuto![G,B,E]3) | %22
 z [B,D]2 x [GB]2 | z [B,DG][B,DG] [B,DG][B,DG][CEA] [B,DG][K:treble][DGB][DGB] | %24
 (!arpeggio!!tenuto![FAdf]6 !arpeggio!!tenuto![_FABd_f]3 | %25
 !arpeggio!!tenuto![EGAde]6) !arpeggio![A,EGc]3 | %26
[K:bass] D,,/A,,/D,/F,/[I:staff -1]A,/D/[I:staff +1] (F,,/C,/F,/[I:staff -1]A,/C/F/)[I:staff +1] (A,,/_F,/A,/[I:staff -1]_C/_F/A/) | %27
[I:staff +1] (D,,/A,,/D,/F,/[I:staff -1]A,/D/)[I:staff +1] (F,,/C,/F,/[I:staff -1]A,/C/F/)[I:staff +1] (A,,/_F,/A,/[I:staff -1]_C/A/_F/) | %28
[I:staff +1] (D,,/A,,/D,/F,/A,/D/ F/A/F/D/A,/F,/ A,/F,/D,/A,,/D,/A,,/) | %29
 (E,,/B,,/E,/=G,/B,/E/x/E/B,/G,/E,/B,,/ E,,/B,,/E,/G,/E,/B,,/) | %30
 (A,,/E,/G,/B,/[I:staff -1]C/G/)[I:staff +1] (G,,/D,/G,/B,/[I:staff -1]D/G/)[I:staff +1] (F,,/C,/F,/A,/C) | %31
 (A,,/E,/G,/B,/[I:staff -1]C/G/)[I:staff +1] (G,,/D,/G,/B,/[I:staff -1]D/G/)[I:staff +1] (F,,/C,/F,/A,/C) | %32
 (E,,/B,,/E,/G,/B,/E/) (GF=DE) | %33
[K:treble] (=D/G/B/[I:staff -1]B/g/b/)[I:staff +1] (E/G/B/[I:staff -1]B/g/b/)[I:staff +1] (C/=E/A/[I:staff -1]c/=e/a/) | %34
[I:staff +1][K:bass] (D,/A,/D/F/[I:staff -1]A/d/)[I:staff +1] (A,/C/F/[I:staff -1]A/c/f/)[I:staff +1] (_C/_F/A/[I:staff -1]_c/_f/a/) | %35
[I:staff +1] (D,/A,/D/F/[I:staff -1]A/d/)[I:staff +1] (A,/C/F/[I:staff -1]A/c/f/)[I:staff +1] (=B,/=E/^G/[I:staff -1]=B/^g/=e/) || %36
[K:E][I:staff +1][K:treble] (C/E/G<B) (E/G/B<c) (G/B/c<e) | %37
 (G/A/c/[I:staff -1]g/c'/a/)[I:staff +1] (F/A/c/[I:staff -1]f/c'/a/)[I:staff +1] (F/A/c/[I:staff -1]f/c'/a/) | %38
[I:staff +1] (F/A/c/[I:staff -1]f/c'/a/)[I:staff +1] (F/A/c/[I:staff -1]f/c'/a/)[I:staff +1] (E/A/c/e/[I:staff -1]c''/c'/) | %39
[I:staff +1] (B,/D/F/[I:staff -1]F/c/A/)[I:staff +1] (A,/C/E/[I:staff -1]F/c/A/)[I:staff +1] (G,/C/E/A/[I:staff -1]e/a/) | %40
[I:staff +1] F,/(C/E/F/A/c/ e/f/e/c/A/F/) (E/F/E/C/A,/F,/) | %41
[K:bass] (F,,/C,/E,/F,/A,/C/ E/C/A,/F,/E,/C,/) (F,,/C,/F,,/C,/F,,/C,/) || %42
[K:Db] (A,,/E,/A,,/E,/A,,/E,/ A,,/E,/A,,/E,/A,,/E,/ A,,/E,/A,,/E,/A,,/E,/ | %43
 A,,/E,/A,,/E,/A,,/E,/ A,,/E,/A,,/E,/A,,/E,/ A,,/E,/A,,/E,/A,,/E,/) | %44
 (A,,/E,,/A,,/E,/A,,/E,/ A,/E,/A,/E/A,/E,/ A,/E,/A,,/E,/A,,/E,,/) | %45
 (A,,/E,,/A,,/E,/A,,/E,/ A,/E,/A,/E/A,/E,/ A,/E,/A,,/E,/A,,/E,,/) | D6 (C/E/G/B/[I:staff -1]c/e/) | %47
[I:staff +1] D6 (C/E/G/B/[I:staff -1]c/e/) | %48
[I:staff +1][K:treble] (G/B/d/[I:staff -1]e/g/b/)[I:staff +1] (G/B/d/[I:staff -1]e/g/c'/)[I:staff +1] (G/B/d/[I:staff -1]e/g/b/) | %49
[I:staff +1] (G/=A/d/[I:staff -1]e/g/=a/)[I:staff +1] (G/A/d/[I:staff -1]e/g/_c'/)[I:staff +1] (G/A/d/[I:staff -1]e/g/a/) | %50
[I:staff +1] F/A/c/f/a/c'/ z2 z z2 z | (F/=A/c/e/f/=a/) z2 z x2 x | (F/_A/c/e/f/a/) z2 z z2 z | %53
 (E/G/A/c/e/g/) z2 z z2 z | (D/_F/G/B/d/_f/) z2 z !arpeggio![EFAc]3 | %55
[K:bass] (C,/G,/B,/C/E/G/) B3 [CE]3 |[K:treble] (A,/B,/D/F/A/B/) z2 z !arpeggio![G,B,DE]3 | %57
[K:bass] (F,/A,/B,/D/F/A/) z2 z [G,C]3 | D,,[I:staff -1][F,A,][I:staff +1][K:treble][FA]- A6 | %59
[K:bass] z [D,G,B,D]2- [D,G,B,D]6 | z [F,A,]2 [DF]3 D3 | z E2- E3 D3 | F,,6- F,,3 | x3 (E,3 E3) | %64
 (2:3:2(A,,E,[K:treble] a3[K:bass] A,3) | %65
 (D,,/A,,/D,/F,/[I:staff -1]A,/D/)[I:staff +1] (F,,/C,/F,/[I:staff -1]A,/C/F/)[I:staff +1] (D,,/A,,/D,/F,/[I:staff -1]A,/D/) | %66
[I:staff +1] (F,,/C,/F,/[I:staff -1]A,/C/F/)[I:staff +1] (A,,/_F,/A,/_C/_F/_G/ A3) | %67
 (D,/A,/D/=F/[I:staff -1]A/d/)[I:staff +1] (F,/=C/F/[I:staff -1]A/c/f/)[I:staff +1] (D,/A,/D/F/[I:staff -1]A/d/) | %68
[I:staff +1] (F,/C/F/[I:staff -1]A/c/f/)[I:staff +1][K:treble] (A,/_C/_F/A/_c/_f/- f3) | %69
 (A,/_C/_F/A/_c/_f/- f3)[K:bass] A,,3 | (D,,/A,,/D,/F,/A,/D/[K:treble] FAd fad') | %71
 !arpeggio![DAdf]6 z2 z |] %72
V:3
xx[I:staff -1][fa]-[I:staff +1] x2 x4 | x9 | x9 | x9 | D6 C3 | B,6 =A,3 |[K:bass] A,6 G,3 | %7
 F,6 (2:3:2E,A,,- | x9[K:treble] |[K:bass] [G,,D,]6 x2 x | [F,,D,]6 x2 x | [G,,D,]6 x2 x | %12
 A,,6- A,,3 | B,,6 x2 x | [E,,,E,,]6[K:treble] x2 x | x9 |[K:bass] [E,,,E,,]6[K:treble] x2 x | x8 | %18
[K:bass] z (G,A,"_6"CB,G,) | [=A,,,=A,,]6 x2 x | x (G,A,DB,G,) | [C,,C,]6 x2 x | x G,A,EDB, | %23
 [E,,E,]6 x2[K:treble] x | x9 | x9 |[K:bass] D,,3 F,,3 A,,3 | D,,3 F,,3 A,,3 | x9 | x9 | %30
 A,,3 G,,3 F,,3 | A,,3 G,,3 F,,3 | E,,3 x4 |[K:treble] =D3 E3 A,3 |[K:bass] D,3 F,3 A,3 | %35
 D,3 F,3 ^G,3 ||[K:E][K:treble] B,3 C3 E3 | G3 F3 ^E3 | =E3 D3 C3 | B,3 A,3 G,3 | F,6- F,3 | %41
[K:bass] x9 ||[K:Db] x9 | x9 | x9 | x9 | (G,2 A, B,2 D C3) | (G,2 A, B,2 D C3) |[K:treble] G6- G3 | %49
 G6 G3 | !tenuto!F6 !tenuto!F3 | !tenuto!F6 !tenuto!F3 | !tenuto!F6 !tenuto!F3 | !tenuto!E6 E3 | %54
 (D6 C3) |[K:bass] (C,6 F,3) |[K:treble] _A,6 x3 |[K:bass] F,6 (2:3:2E,A,, | %58
 [D,,A,,]4[K:treble] x4 x |[K:bass] [G,,D,]4 x4 x | A,,6 x2 x | x [F,B,]2- [F,B,]6 | x9 | %63
 E,,6 x2 x | A,,6[K:treble][K:bass] x2 x | D,,3 F,,3 D,,3 | F,,3 A,,6 | D,3 F,3 D,3 | %68
 F,3[K:treble] A,6 | A,6[K:bass] x2 x | D,,6[K:treble] x2 x | x9 |] %72
V:4
 x9 | x9 | x3 B6- | x9 | G6 G3 | E6 E3 | D6- D3 | B,6 A,3 | x9 | z [GB]2- [GB]6 | x A2 x2 x4 | %11
 z [GB]2- [GB]6 | x A2 f6 | z [FB]2- [FB]6 | x9 | x9 | x9 | x8 | x6 | x9 | x d3 g2 | x9 | %22
 x [Bd]2 x [gb]2 | x9 |!8va(! x9 | x6!8va)! x3 | x4 x x A3 | x9 | x9 | %29
 x3[I:staff +1] (=G[I:staff -1]FD D3/2B,3/2) | x8 A/F/ | x8 A/F/ | %32
 x3 (3g/G/B/ (3f/G/B/ (3=d/G/B/ (3e/G/B/ | x9 | x9 | x9 || %36
[K:E] c'>"_più cresc."cg/e/ e'>ec'/g/ g'>ge'/b/ | x9 | x9 | x9 | x9 | x6 A,3 || %42
[K:Db] (G,2 A, B,2 D C3) | (G,2 A, B,2 D C3) | x3 DB,D B,CE | x3 DB,D B,CE | %46
 e/(E/G/B/G/E/) z/ (E/G/B/G/E/) x x2 | e/(E/G/B/G/E/) z/ (E/G/B/G/E/) x x2 | x9 | x9 | %50
 x3!8va(! x6 | x9 | x9 | x9!8va)! | x3 g3 f3- | x9 | x3 d3 d3 | x9 | x9 | x [GB]2- [GB]6 | %60
 x A2 x2 x4 | z [FB]2- [FB]6 | x A,2 x2 x4 | x ([B,D]2 [GB]3) [DG]3 | x [CG]2 [Ac]3 x2 x | x9 | %66
 x3 A3 _F3 | x9 | x3 a6 | a6 x2 x | x9 | x9 |] %72
V:5
 x9 | x9 | x9 | x9 | x9 | x9 |[K:bass] x9 | x9 | x2[K:treble] x7 |[K:bass] x9 | x9 | x9 | x9 | %13
 x [F,B,]2- [F,B,]6 | x3/2[K:treble] x15/2 | x9 |[K:bass] x3/2[K:treble] x15/2 | x8 | %18
[K:bass] [A,,,A,,]6 | x9 | [B,,,B,,]6 | x9 | [D,,D,]6 | x7[K:treble] x2 | x9 | x9 |[K:bass] x9 | %27
 x9 | x9 | x9 | x9 | x9 | x7 |[K:treble] x9 |[K:bass] x9 | x9 ||[K:E][K:treble] x9 | x9 | x9 | x9 | %40
 x9 |[K:bass] x9 ||[K:Db] x9 | x9 | x9 | x9 | x9 | x9 |[K:treble] x9 | x9 | x9 | x9 | x9 | x9 | %54
 x9 |[K:bass] x9 |[K:treble] x9 |[K:bass] x9 | x3[K:treble] !>![_CF]6 |[K:bass] x9 | x3 _C3- C3 | %61
 B,,4 x4 x | x9 | x9 | x3[K:treble] x3[K:bass] x3 | x9 | x9 | x9 | x3[K:treble] x6 | %69
 x6[K:bass] x3 | x3[K:treble] x6 | x9 |] %72
V:6
 x9 | x9 | x9 | x9 | x9 | x9 |[K:bass] x9 | x9 | x2[K:treble] x7 |[K:bass] x9 | x9 | x9 | x9 | x9 | %14
 x3/2[K:treble] x15/2 | x9 |[K:bass] B,,4[K:treble] x4 x | x8 |[K:bass] x6 | x9 | x6 | x9 | x6 | %23
 x7[K:treble] x2 | x9 | x9 |[K:bass] x9 | x9 | x9 | x9 | x9 | x9 | x7 |[K:treble] x9 |[K:bass] x9 | %35
 x9 ||[K:E][K:treble] x9 | x9 | x9 | x9 | x9 |[K:bass] x9 ||[K:Db] x9 | x9 | x9 | x9 | x9 | x9 | %48
[K:treble] x9 | x9 | x9 | x9 | x9 | x9 | x9 |[K:bass] x9 |[K:treble] x9 |[K:bass] x9 | %58
 x2[K:treble] x7 |[K:bass] x9 | x9 | x9 | x9 | x9 | x3[K:treble] x3[K:bass] x3 | x9 | x9 | x9 | %68
 x3[K:treble] x6 | x6[K:bass] x3 | x3[K:treble] x6 | x9 |] %72

